X: 95
T:Pibddawns Nadolig Kate Broadwood
M:2/4
L:1/16
Q:90
S:Cadw Twmpath Collection
R:Hornpipe
A:Wales
Z:brian_martin12345@yahoo.com
K:G
G2BG d2BG|E2cA FADF|G2BG g2fg|e^cAc ed=cA|!
G2BG d2BG|E2cA FADF|GABc defg|fadf g2g2:||!
d2fd a2fd|B2ge ^ceAc|dd'^c'd' bdad|gefd Be^cA|!
d2fd a2fd|B2ge ^ceAc|defg d'^c'd'a|bea^c d2d2:||
